X:23
T:Vr{\aa}lk{\aa}da
R:schottis
C:Roger Tallroth
Z:id:hn-schottis-23
M:C|
K:Am
c2c>B A>^GA>c|c>BB>^G E4|c2c>B A>^GA>c|c>BB>^d e4|
c2c>B A>^GA>c|c>BB>^G E2-E>=G|^F>ED2 E2-E>C|1 B,>A,G,2 A,4:|2 B,>A,G,2 A,2A,2-||
|:A,>G,A,>C CA,B,>D C2C2-|C>A,C>E G>AG>E|^F>AF>D E2E2-|
E>A,A,>C CA,B,>D C>DE>G|^F>ED2 E2-E>C|1 B,>A,G,2 A,2A,2-:|2 B,>A,G,2 A,z3||
